X:1
T:Polka
T:Polka
L:1/8
M:2/4
K:G
V:1 treble 
V:1
 F>A c>e | dB B2 | de/d/ cA | G>B (BA/G/) | F>A c>e | d>B B2 | de/d/ c>A | AG G2 :: c>e g>e | %9
 (dB) B2 | de/d/ (cA) | GB B2 | (ce) (g>e) | dB B2 | de/d/ cA | AG (G/B/A/G/) :| %16

